images/themes/default/mActionIconView.svg

<svg height="24" width="24" xmlns="http://www.w3.org/2000/svg"><path d="m2.5 2.5h19v19h-19z" fill="#e6e6e6" stroke="#6e97c4"/><path d="m4 4v4h4v-4zm6 0v4h4v-4zm6 0v4h4v-4zm-12 6v4h4v-4zm6 0v4h4v-4zm6 0v4h4v-4zm-12 6v4h4v-4zm6 0v4h4v-4zm6 0v4h4v-4z" fill="#6e97c4"/></svg>

<svg xmlns="http://www.w3.org/2000/svg" height="24" width="24"><path d="M2.5 2.5h19v19h-19z" fill="#e6e6e6" stroke="#6e97c4"/><path style="line-height:normal;font-variant-ligatures:normal;font-variant-position:normal;font-variant-caps:normal;font-variant-numeric:normal;font-variant-alternates:normal;font-feature-settings:normal;text-indent:0;text-align:start;text-decoration-line:none;text-decoration-style:solid;text-decoration-color:#000;text-transform:none;text-orientation:mixed;shape-padding:0;isolation:auto;mix-blend-mode:normal" d="M4 4v4h4V4zM10 4v4h4V4zM16 4v4h4V4zM4 10v4h4v-4zM10 10v4h4v-4zM16 10v4h4v-4zM4 16v4h4v-4zM10 16v4h4v-4zM16 16v4h4v-4z" color="#000" font-weight="400" font-family="sans-serif" white-space="normal" overflow="visible" fill="#6e97c4"/></svg>
